usr/share/icons/biglinux-icons-material/scalable/apps/akonadiconsole.svg

<svg xmlns="http://www.w3.org/2000/svg" xml:space="preserve" width="24" height="24" viewBox="0 0 6.35 6.35"><defs><radialGradient id="a" cx="0" cy="0" r="1" fx="0" fy="0" gradientTransform="matrix(0 16.5 -16.5 0 8.25 0)" gradientUnits="userSpaceOnUse" spreadMethod="pad"><stop offset="0" style="stop-opacity:1;stop-color:#ececec"/><stop offset="1" style="stop-opacity:1;stop-color:#bdbdbd"/></radialGradient></defs><path d="M6.445.086c.09 0 .176-.012.258-.035a23.86 23.86 0 0 1 3.231.008 10.26 10.26 0 0 1 2.836.636c1.519.625 2.558 1.711 3.121 3.254.316.93.507 1.887.566 2.867a21.227 21.227 0 0 1-.086 3.696A8.976 8.976 0 0 1 15.699 13c-.637 1.383-1.672 2.336-3.101 2.859a11.693 11.693 0 0 1-3.575.618 15.998 15.998 0 0 1-4.089-.309C2.453 15.617.918 14.102.34 11.625a14.244 14.244 0 0 1-.336-3.383c-.027-1.211.101-2.41.387-3.59C1 2.34 2.469.906 4.797.352A10.27 10.27 0 0 1 6.445.086Z" style="fill:url(#a);fill-rule:evenodd;stroke:none" transform="translate(.264 .265) scale(.35277)"/><path d="M16.414 6.316 6.336 16.395c.891.101 1.785.128 2.687.082a11.714 11.714 0 0 0 3.575-.618c1.429-.523 2.464-1.476 3.101-2.859a9.013 9.013 0 0 0 .672-2.488c.137-1.231.164-2.461.086-3.696a19.397 19.397 0 0 0-.043-.5Z" style="fill:#898989;fill-opacity:.161111;fill-rule:nonzero;stroke:none" transform="translate(.264 .265) scale(.35277)"/><path d="M13.25 12.105H6.289a.49.49 0 0 0-.5.481c0 .262.223.476.5.476h6.961c.277 0 .5-.214.5-.476a.49.49 0 0 0-.5-.481zM3.309 3.441a.51.51 0 0 0-.493.235.475.475 0 0 0-.05.363.496.496 0 0 0 .086.168.48.48 0 0 0 .148.121l5.344 2.961L3 10.254a.545.545 0 0 0-.148.121.536.536 0 0 0-.086.168.475.475 0 0 0 .05.363.511.511 0 0 0 .684.176l6.027-3.344a.455.455 0 0 0 .176-.172.413.413 0 0 0 .063-.234c.004-.016.004-.027.004-.039 0-.016 0-.027-.004-.043 0-.082-.02-.16-.063-.23a.455.455 0 0 0-.176-.172L3.5 3.5a.559.559 0 0 0-.191-.059Z" style="fill:#666;fill-opacity:1;fill-rule:nonzero;stroke:none" transform="translate(.264 .265) scale(.35277)"/></svg>

<?xml version="1.0" encoding="UTF-8" standalone="no"?>
<svg
   width="24"
   height="24"
   viewBox="0 0 6.349875 6.349875"
   version="1.1"
   id="svg22569"
   sodipodi:docname="akonadiconsole.svg"
   xml:space="preserve"
   inkscape:version="1.2.2 (b0a8486541, 2022-12-01)"
   inkscape:export-filename="akonadiconsole.pdf"
   inkscape:export-xdpi="96"
   inkscape:export-ydpi="96"
   xmlns:inkscape="http://www.inkscape.org/namespaces/inkscape"
   xmlns:sodipodi="http://sodipodi.sourceforge.net/DTD/sodipodi-0.dtd"
   xmlns="http://www.w3.org/2000/svg"
   xmlns:svg="http://www.w3.org/2000/svg"><sodipodi:namedview
     id="namedview22571"
     pagecolor="#ffffff"
     bordercolor="#000000"
     borderopacity="0.25"
     inkscape:showpageshadow="2"
     inkscape:pageopacity="0.0"
     inkscape:pagecheckerboard="0"
     inkscape:deskcolor="#d1d1d1"
     showgrid="false"
     inkscape:zoom="9.3691649"
     inkscape:cx="61.371532"
     inkscape:cy="31.646364"
     inkscape:window-width="2560"
     inkscape:window-height="1000"
     inkscape:window-x="1680"
     inkscape:window-y="0"
     inkscape:window-maximized="1"
     inkscape:current-layer="svg22569" /><defs
     id="defs22559"><linearGradient
       id="a"
       x1="47"
       x2="59.998001"
       y1="41"
       y2="53.978001"
       gradientTransform="matrix(0.26458,0,0,0.26458,-0.004,0.27)"
       gradientUnits="userSpaceOnUse"><stop
         offset="0"
         id="stop22554" /><stop
         stop-color="#242424"
         stop-opacity="0"
         offset="1"
         id="stop22556" /></linearGradient><radialGradient
       id="paint0_radial_3_321"
       cx="0"
       cy="0"
       r="1"
       gradientUnits="userSpaceOnUse"
       gradientTransform="matrix(0,5.8207186,-5.8207186,0,25.080006,3.7590102)"><stop
         stop-color="#555555"
         id="stop180"
         offset="0"
         style="stop-color:#ececec;stop-opacity:1;" /><stop
         offset="1"
         stop-color="#222222"
         id="stop182"
         style="stop-color:#bdbdbd;stop-opacity:1;" /></radialGradient><radialGradient
       fx="0"
       fy="0"
       cx="0"
       cy="0"
       r="1"
       gradientUnits="userSpaceOnUse"
       gradientTransform="matrix(0,16.5,-16.5,0,8.250005,1.13388e-6)"
       spreadMethod="pad"
       id="radialGradient24904"><stop
         style="stop-opacity:1;stop-color:#ececec"
         offset="0"
         id="stop24900" /><stop
         style="stop-opacity:1;stop-color:#bdbdbd"
         offset="1"
         id="stop24902" /></radialGradient><radialGradient
       fx="0"
       fy="0"
       cx="0"
       cy="0"
       r="1"
       gradientUnits="userSpaceOnUse"
       gradientTransform="matrix(0,16.5,-16.5,0,8.250005,1.13388e-6)"
       spreadMethod="pad"
       id="radialGradient24904-9"><stop
         style="stop-opacity:1;stop-color:#ececec"
         offset="0"
         id="stop24900-1" /><stop
         style="stop-opacity:1;stop-color:#bdbdbd"
         offset="1"
         id="stop24902-2" /></radialGradient></defs><g
     id="g25036"
     transform="translate(9.9241165,1.6217791)"><g
       id="g24888"
       transform="matrix(0.35277082,0,0,0.35277082,-9.659658,-1.3572102)"><g
         id="g24890"><g
           id="g24892"><g
             id="g24898"><path
               d="m 6.445,0.086 c 0.09,0 0.176,-0.012 0.258,-0.035 1.078,-0.071 2.156,-0.067 3.231,0.008 0.976,0.078 1.921,0.289 2.836,0.636 1.519,0.625 2.558,1.711 3.121,3.254 0.316,0.93 0.507,1.887 0.566,2.867 0.078,1.235 0.051,2.465 -0.086,3.696 -0.105,0.863 -0.328,1.691 -0.672,2.488 -0.637,1.383 -1.672,2.336 -3.101,2.859 C 11.441,16.25 10.25,16.457 9.023,16.477 7.648,16.551 6.285,16.445 4.934,16.168 2.453,15.617 0.918,14.102 0.34,11.625 0.094,10.512 -0.02,9.383 0.004,8.242 -0.023,7.031 0.105,5.832 0.391,4.652 1,2.34 2.469,0.906 4.797,0.352 5.34,0.219 5.891,0.129 6.445,0.086 Z"
               style="fill:url(#radialGradient24904-9);fill-rule:evenodd;stroke:none"
               id="path24906" /></g></g></g><path
         d="M 16.414,6.316 6.336,16.395 c 0.891,0.101 1.785,0.128 2.687,0.082 1.223,-0.02 2.418,-0.227 3.575,-0.618 1.429,-0.523 2.464,-1.476 3.101,-2.859 0.344,-0.797 0.567,-1.629 0.672,-2.488 C 16.508,9.281 16.535,8.051 16.457,6.816 16.445,6.648 16.43,6.48 16.414,6.316 Z"
         style="fill:#898989;fill-opacity:0.161111;fill-rule:nonzero;stroke:none"
         id="path24908" /><path
         d="M 13.25,12.105 H 6.289 c -0.277,0 -0.5,0.215 -0.5,0.481 0,0.262 0.223,0.476 0.5,0.476 h 6.961 c 0.277,0 0.5,-0.214 0.5,-0.476 0,-0.266 -0.223,-0.481 -0.5,-0.481 z"
         style="fill:#666666;fill-opacity:1;fill-rule:nonzero;stroke:none"
         id="path24910" /><path
         d="M 3.309,3.441 C 3.215,3.43 3.113,3.445 3.027,3.488 2.938,3.527 2.867,3.594 2.816,3.676 2.785,3.73 2.762,3.789 2.754,3.852 2.746,3.914 2.75,3.977 2.766,4.039 2.785,4.102 2.812,4.156 2.852,4.207 2.895,4.258 2.941,4.297 3,4.328 L 8.344,7.289 3,10.254 c -0.059,0.031 -0.105,0.074 -0.148,0.121 -0.04,0.051 -0.067,0.109 -0.086,0.168 -0.016,0.062 -0.02,0.125 -0.012,0.187 0.008,0.063 0.031,0.122 0.062,0.176 0.141,0.231 0.442,0.309 0.684,0.176 L 9.527,7.738 C 9.602,7.695 9.664,7.637 9.703,7.566 9.746,7.496 9.77,7.414 9.766,7.332 9.77,7.316 9.77,7.305 9.77,7.293 9.77,7.277 9.77,7.266 9.766,7.25 9.766,7.168 9.746,7.09 9.703,7.02 9.66,6.949 9.602,6.887 9.527,6.848 L 3.5,3.5 C 3.441,3.469 3.375,3.449 3.309,3.441 Z"
         style="fill:#666666;fill-opacity:1;fill-rule:nonzero;stroke:none"
         id="path24912" /></g></g></svg>
